logos/codeigniter-icon.svg

<?xml version="1.0" encoding="UTF-8"?>
<svg width="256px" height="316px" viewBox="0 0 256 316" version="1.1" xmlns="http://www.w3.org/2000/svg" preserveAspectRatio="xMidYMid">
    <title>CodeIgniter</title>
    <g>
        <path d="M81.8339408,315.106502 C61.6109376,306.172131 47.86954,286.924324 46.066905,264.878985 C47.2489607,242.203216 59.2271253,221.477839 78.2483718,209.115506 C75.1257746,216.729915 75.8842604,225.398324 80.2184647,232.362602 C85.1535473,239.257927 93.6446475,242.567683 101.958439,240.843852 C113.798697,237.514395 120.733424,225.221016 117.403967,213.370907 C116.221912,209.223862 113.8578,205.460984 110.626848,202.624051 C97.2302165,191.729437 90.5023494,174.60933 92.8960122,157.499074 C95.1911704,148.436646 100.205057,140.24106 107.287541,134.054969 C101.96829,148.239637 116.970547,162.237147 127.037721,169.122621 C144.906464,179.839927 162.105374,191.621082 178.575351,204.397134 C196.572149,218.581803 206.383211,240.784749 204.846539,263.49992 C200.797998,287.672959 183.697592,307.63 160.391394,315.116353 C207.013641,304.743814 255.083907,267.706068 256,215.173542 C255.083907,173.141611 229.994774,135.424183 191.646917,118.244973 L189.942786,118.244973 C190.789926,120.30372 191.203646,122.520075 191.124842,124.75613 C191.252898,123.308112 191.252898,121.869944 191.124842,120.421926 C191.331702,122.126056 191.331702,123.840037 191.124842,125.544167 C188.209105,137.492781 176.152136,144.851077 164.173972,141.93534 C159.386646,140.753284 155.111545,138.064108 152.0382,134.183025 C136.671476,114.482096 152.0382,92.0624393 154.609171,70.3914178 C156.185245,42.6820618 143.527399,16.1941633 121.06834,-2.13162821e-14 C132.30772,18.7355831 117.335014,43.3420429 106.450251,57.3395527 C95.5457871,71.3370624 79.7850443,81.7687041 66.9400388,93.9832798 C53.1001365,106.857837 40.4127385,121.012954 29.0256018,136.143267 C4.40929149,166.216734 -5.25401398,205.884554 2.75441349,243.907346 C13.7376812,280.551074 44.1953168,308.083121 81.7551371,315.224708 L81.9619969,315.224708 L81.8339408,315.106502 Z" fill="#DD4814"></path>
    </g>
</svg>

<?xml version="1.0" encoding="UTF-8"?>
<svg width="256" height="316" version="1.1" xmlns="http://www.w3.org/2000/svg" preserveAspectRatio="xMidYMid">
	<path d="M81.834 315.107c-20.223-8.935-33.964-28.183-35.767-50.228a70.919 70.919 0 0 1 32.181-55.763c-3.122 7.614-2.364 16.282 1.97 23.247a21.343 21.343 0 0 0 21.74 8.48c11.84-3.329 18.775-15.622 15.446-27.472a22.582 22.582 0 0 0-6.777-10.747A49.355 49.355 0 0 1 92.896 157.5a46.215 46.215 0 0 1 14.392-23.444c-5.32 14.185 9.683 28.182 19.75 35.068a522.83 522.83 0 0 1 51.537 35.274c17.997 14.185 27.808 36.388 26.272 59.103-4.049 24.173-21.15 44.13-44.456 51.616 46.623-10.372 94.693-47.41 95.609-99.942-.916-42.032-26.005-79.75-64.353-96.929h-1.704a15.661 15.661 0 0 1 1.182 6.511 24.497 24.497 0 0 0 0-4.334 21.217 21.217 0 0 1 0 5.122c-2.916 11.949-14.973 19.307-26.951 16.391-4.787-1.182-9.062-3.87-12.136-7.752-15.367-19.7 0-42.12 2.571-63.792A81.04 81.04 0 0 0 121.07 0c11.239 18.736-3.734 43.342-14.619 57.34-10.904 13.997-26.665 24.429-39.51 36.643-13.84 12.875-26.527 27.03-37.914 42.16-24.617 30.074-34.28 69.742-26.272 107.764 10.984 36.644 41.441 64.176 79.001 71.318h.207l-.128-.118Z" fill="#DD4814"/>
</svg>
